src/assets/teimer.svg

<svg xmlns="http://www.w3.org/2000/svg" xmlns:xlink="http://www.w3.org/1999/xlink" width="623.904" height="155.904" viewBox="0 0 165.075 41.25"><defs><linearGradient id="b"><stop offset="0" style="stop-color:#8a8a8a;stop-opacity:1"/><stop offset="1" style="stop-color:#000;stop-opacity:1"/></linearGradient><linearGradient id="a"><stop offset="0" style="stop-color:#8a8a8a;stop-opacity:1"/><stop offset="1" style="stop-color:#fff;stop-opacity:1"/></linearGradient><linearGradient xlink:href="#a" id="c" x1="79.215" x2="79.215" y1="90.824" y2="54.022" gradientTransform="translate(68.684 13.597)" gradientUnits="userSpaceOnUse"/><linearGradient xlink:href="#b" id="d" x1="52.973" x2="52.973" y1="182.77" y2="210.313" gradientTransform="translate(-46.674 -90.902)" gradientUnits="userSpaceOnUse"/></defs><path d="M40.075 103.549v-27.89H29.61v-7.67h29.972v7.67h-10.82v27.89Zm29.166 0V76.574h8.179v26.975Zm4.115-32.309q-2.337 0-3.658-1.067-1.27-1.117-1.27-3.15 0-1.879 1.32-3.047 1.322-1.169 3.608-1.169 2.235 0 3.505 1.118 1.32 1.067 1.32 3.099 0 1.88-1.32 3.048-1.27 1.168-3.505 1.168zm15.652 32.309V76.574h7.773l.254 4.877-1.118.101q.559-1.32 1.524-2.336.965-1.016 2.134-1.677 1.219-.71 2.54-1.067 1.32-.406 2.641-.406 2.032 0 3.607.61 1.626.61 2.794 1.98 1.22 1.372 1.93 3.658l-1.219-.203.356-.71q.711-1.22 1.727-2.185 1.067-1.016 2.337-1.728 1.27-.71 2.59-1.066 1.372-.356 2.642-.356 3.2 0 5.334 1.27 2.134 1.27 3.2 3.76 1.067 2.438 1.067 6.044v16.409h-8.178V87.75q0-2.388-1.016-3.556-.966-1.22-2.947-1.22-1.067 0-1.981.356-.864.305-1.524.966-.61.61-.965 1.422-.356.813-.356 1.829v16.002h-8.179v-15.85q0-2.286-1.066-3.505-1.016-1.22-2.896-1.22-1.016 0-1.93.356-.864.305-1.524.966-.61.61-.966 1.422-.355.813-.355 1.829v16.002Zm65.742.508q-4.47 0-7.823-1.778-3.302-1.778-5.131-4.877-1.778-3.15-1.778-7.163 0-3.15 1.016-5.74 1.016-2.642 2.845-4.521 1.88-1.88 4.368-2.896 2.54-1.067 5.538-1.067 2.844 0 5.181 1.016t4.064 2.845q1.727 1.829 2.642 4.318.914 2.49.863 5.436l-.05 2.235h-21.438l-1.22-4.623h16.003l-.864.914V87.14q-.101-1.27-.813-2.184-.66-.965-1.778-1.524-1.066-.559-2.438-.559-2.032 0-3.454.813-1.372.762-2.083 2.235-.711 1.473-.711 3.658 0 2.184.914 3.86.965 1.677 2.743 2.591 1.829.915 4.318.915 1.677 0 3.048-.508 1.372-.508 2.947-1.727l3.81 5.385q-1.575 1.32-3.353 2.235-1.778.863-3.658 1.27-1.829.457-3.708.457zm20.936-.508V76.574h7.772l.356 8.788-1.524-1.727q.66-2.133 2.032-3.86 1.371-1.728 3.25-2.744 1.931-1.016 4.014-1.016.915 0 1.677.153.812.101 1.422.355l-2.184 8.992q-.56-.305-1.524-.508-.915-.254-1.93-.254-1.118 0-2.084.406-.914.356-1.625 1.067-.66.711-1.067 1.676-.356.966-.356 2.185v13.462Z" style="font-weight:700;font-size:50.8px;line-height:2;font-family:&quot;Readex Pro&quot;;-inkscape-font-specification:&quot;Readex Pro, Bold&quot;;letter-spacing:3.96875px;direction:rtl;fill:url(#c);stroke-linecap:round;stroke-linejoin:round;stroke-dashoffset:112.318" transform="translate(-29.61 -62.807)"/><path d="M8.65 119.493q-4.47 0-7.823-1.778-3.302-1.778-5.131-4.877-1.778-3.15-1.778-7.163 0-3.15 1.016-5.74 1.016-2.642 2.845-4.521 1.88-1.88 4.368-2.896 2.54-1.067 5.538-1.067 2.844 0 5.181 1.016t4.064 2.845q1.727 1.829 2.642 4.318.914 2.49.863 5.436l-.05 2.235H-1.053l-1.22-4.623H13.73l-.864.915v-1.016q-.101-1.27-.813-2.185-.66-.965-1.778-1.524-1.066-.559-2.438-.559-2.032 0-3.454.813-1.372.762-2.083 2.235-.711 1.474-.711 3.658t.914 3.86q.965 1.677 2.743 2.592 1.829.914 4.318.914 1.677 0 3.048-.508 1.372-.508 2.947-1.727l3.81 5.385q-1.575 1.32-3.353 2.235-1.778.863-3.658 1.27-1.829.457-3.708.457z" style="font-weight:700;font-size:50.8px;line-height:2;font-family:&quot;Readex Pro&quot;;-inkscape-font-specification:&quot;Readex Pro, Bold&quot;;letter-spacing:6.28915px;direction:rtl;fill:url(#d);stroke:#fff;stroke-width:2.1;stroke-linecap:round;stroke-linejoin:round;stroke-dashoffset:112.318;stroke-opacity:.5;paint-order:stroke fill markers" transform="rotate(-29.577 -133.761 24.678)"/></svg>

<?xml version="1.0" encoding="UTF-8" standalone="no"?>
<!DOCTYPE svg PUBLIC "-//W3C//DTD SVG 1.1//EN" "http://www.w3.org/Graphics/SVG/1.1/DTD/svg11.dtd">
<svg width="100%" height="100%" viewBox="0 0 633 177" version="1.1" xmlns="http://www.w3.org/2000/svg" xmlns:xlink="http://www.w3.org/1999/xlink" xml:space="preserve" xmlns:serif="http://www.serif.com/" style="fill-rule:evenodd;clip-rule:evenodd;stroke-linejoin:round;stroke-miterlimit:2;">
    <g transform="matrix(3.779491,0,0,3.779491,-107.660726,-233.128486)">
        <path d="M40.075,103.549L40.075,75.659L29.61,75.659L29.61,67.989L59.582,67.989L59.582,75.659L48.762,75.659L48.762,103.549L40.075,103.549ZM69.241,103.549L69.241,76.574L77.42,76.574L77.42,103.549L69.241,103.549ZM73.356,71.24C71.798,71.24 70.579,70.884 69.698,70.173C68.851,69.428 68.428,68.378 68.428,67.023C68.428,65.77 68.868,64.755 69.748,63.976C70.629,63.197 71.832,62.807 73.356,62.807C74.846,62.807 76.014,63.18 76.861,63.925C77.741,64.636 78.181,65.669 78.181,67.024C78.181,68.277 77.741,69.293 76.861,70.072C76.014,70.851 74.846,71.24 73.356,71.24ZM89.008,103.549L89.008,76.574L96.781,76.574L97.035,81.451L95.917,81.552C96.29,80.672 96.798,79.893 97.441,79.216C98.084,78.539 98.796,77.98 99.575,77.539C100.388,77.066 101.234,76.71 102.115,76.472C102.995,76.201 103.875,76.066 104.756,76.066C106.111,76.066 107.313,76.269 108.363,76.676C109.447,77.083 110.378,77.743 111.157,78.656C111.97,79.571 112.614,80.79 113.087,82.314L111.868,82.111L112.224,81.401C112.698,80.588 113.274,79.859 113.951,79.216C114.662,78.539 115.441,77.963 116.288,77.488C117.135,77.015 117.998,76.659 118.878,76.422C119.793,76.185 120.673,76.066 121.52,76.066C123.653,76.066 125.431,76.489 126.854,77.336C128.277,78.183 129.343,79.436 130.054,81.096C130.765,82.721 131.121,84.736 131.121,87.14L131.121,103.549L122.943,103.549L122.943,87.75C122.943,86.158 122.604,84.973 121.927,84.194C121.283,83.381 120.301,82.974 118.98,82.974C118.269,82.974 117.608,83.093 116.999,83.33C116.423,83.533 115.915,83.855 115.475,84.296C115.068,84.703 114.747,85.177 114.51,85.718C114.273,86.26 114.154,86.87 114.154,87.547L114.154,103.549L105.975,103.549L105.975,87.699C105.975,86.175 105.62,85.007 104.909,84.194C104.232,83.381 103.266,82.974 102.013,82.974C101.336,82.974 100.692,83.093 100.083,83.33C99.507,83.533 98.999,83.855 98.559,84.296C98.152,84.703 97.83,85.177 97.593,85.718C97.356,86.26 97.238,86.87 97.238,87.547L97.238,103.549L89.008,103.549ZM154.75,104.057C151.77,104.057 149.162,103.464 146.927,102.279C144.726,101.094 143.015,99.468 141.796,97.402C140.611,95.302 140.018,92.914 140.018,90.239C140.018,88.139 140.357,86.226 141.034,84.499C141.711,82.738 142.66,81.231 143.879,79.978C145.132,78.725 146.588,77.759 148.247,77.082C149.94,76.371 151.786,76.015 153.785,76.015C155.681,76.015 157.408,76.354 158.966,77.031C160.524,77.708 161.879,78.657 163.03,79.876C164.181,81.095 165.062,82.535 165.672,84.194C166.281,85.854 166.569,87.666 166.535,89.63L166.485,91.865L145.047,91.865L143.827,87.242L159.83,87.242L158.966,88.156L158.966,87.14C158.899,86.293 158.628,85.565 158.153,84.956C157.713,84.313 157.12,83.805 156.375,83.432C155.664,83.059 154.852,82.873 153.937,82.873C152.582,82.873 151.431,83.144 150.483,83.686C149.568,84.194 148.874,84.939 148.4,85.921C147.926,86.903 147.689,88.122 147.689,89.579C147.689,91.035 147.994,92.322 148.603,93.439C149.246,94.557 150.161,95.421 151.346,96.03C152.565,96.64 154.005,96.945 155.664,96.945C156.782,96.945 157.798,96.776 158.712,96.437C159.627,96.098 160.609,95.523 161.659,94.71L165.469,100.095C164.419,100.975 163.301,101.72 162.116,102.33C160.931,102.905 159.711,103.329 158.458,103.6C157.239,103.905 156.003,104.057 154.75,104.057ZM175.686,103.549L175.686,76.574L183.458,76.574L183.814,85.362L182.29,83.635C182.73,82.213 183.407,80.926 184.322,79.775C185.236,78.623 186.319,77.708 187.572,77.031C188.859,76.354 190.197,76.015 191.586,76.015C192.196,76.015 192.755,76.066 193.263,76.168C193.804,76.235 194.278,76.354 194.685,76.523L192.501,85.515C192.128,85.312 191.62,85.142 190.977,85.007C190.367,84.838 189.724,84.753 189.047,84.753C188.302,84.753 187.607,84.888 186.963,85.159C186.354,85.396 185.812,85.752 185.338,86.226C184.898,86.7 184.542,87.259 184.271,87.902C184.034,88.546 183.915,89.274 183.915,90.087L183.915,103.549L175.686,103.549Z" style="fill:none;fill-rule:nonzero;stroke:black;stroke-width:2.25px;"/>
        <path d="M40.075,103.549L40.075,75.659L29.61,75.659L29.61,67.989L59.582,67.989L59.582,75.659L48.762,75.659L48.762,103.549L40.075,103.549ZM69.241,103.549L69.241,76.574L77.42,76.574L77.42,103.549L69.241,103.549ZM73.356,71.24C71.798,71.24 70.579,70.884 69.698,70.173C68.851,69.428 68.428,68.378 68.428,67.023C68.428,65.77 68.868,64.755 69.748,63.976C70.629,63.197 71.832,62.807 73.356,62.807C74.846,62.807 76.014,63.18 76.861,63.925C77.741,64.636 78.181,65.669 78.181,67.024C78.181,68.277 77.741,69.293 76.861,70.072C76.014,70.851 74.846,71.24 73.356,71.24ZM89.008,103.549L89.008,76.574L96.781,76.574L97.035,81.451L95.917,81.552C96.29,80.672 96.798,79.893 97.441,79.216C98.084,78.539 98.796,77.98 99.575,77.539C100.388,77.066 101.234,76.71 102.115,76.472C102.995,76.201 103.875,76.066 104.756,76.066C106.111,76.066 107.313,76.269 108.363,76.676C109.447,77.083 110.378,77.743 111.157,78.656C111.97,79.571 112.614,80.79 113.087,82.314L111.868,82.111L112.224,81.401C112.698,80.588 113.274,79.859 113.951,79.216C114.662,78.539 115.441,77.963 116.288,77.488C117.135,77.015 117.998,76.659 118.878,76.422C119.793,76.185 120.673,76.066 121.52,76.066C123.653,76.066 125.431,76.489 126.854,77.336C128.277,78.183 129.343,79.436 130.054,81.096C130.765,82.721 131.121,84.736 131.121,87.14L131.121,103.549L122.943,103.549L122.943,87.75C122.943,86.158 122.604,84.973 121.927,84.194C121.283,83.381 120.301,82.974 118.98,82.974C118.269,82.974 117.608,83.093 116.999,83.33C116.423,83.533 115.915,83.855 115.475,84.296C115.068,84.703 114.747,85.177 114.51,85.718C114.273,86.26 114.154,86.87 114.154,87.547L114.154,103.549L105.975,103.549L105.975,87.699C105.975,86.175 105.62,85.007 104.909,84.194C104.232,83.381 103.266,82.974 102.013,82.974C101.336,82.974 100.692,83.093 100.083,83.33C99.507,83.533 98.999,83.855 98.559,84.296C98.152,84.703 97.83,85.177 97.593,85.718C97.356,86.26 97.238,86.87 97.238,87.547L97.238,103.549L89.008,103.549ZM154.75,104.057C151.77,104.057 149.162,103.464 146.927,102.279C144.726,101.094 143.015,99.468 141.796,97.402C140.611,95.302 140.018,92.914 140.018,90.239C140.018,88.139 140.357,86.226 141.034,84.499C141.711,82.738 142.66,81.231 143.879,79.978C145.132,78.725 146.588,77.759 148.247,77.082C149.94,76.371 151.786,76.015 153.785,76.015C155.681,76.015 157.408,76.354 158.966,77.031C160.524,77.708 161.879,78.657 163.03,79.876C164.181,81.095 165.062,82.535 165.672,84.194C166.281,85.854 166.569,87.666 166.535,89.63L166.485,91.865L145.047,91.865L143.827,87.242L159.83,87.242L158.966,88.156L158.966,87.14C158.899,86.293 158.628,85.565 158.153,84.956C157.713,84.313 157.12,83.805 156.375,83.432C155.664,83.059 154.852,82.873 153.937,82.873C152.582,82.873 151.431,83.144 150.483,83.686C149.568,84.194 148.874,84.939 148.4,85.921C147.926,86.903 147.689,88.122 147.689,89.579C147.689,91.035 147.994,92.322 148.603,93.439C149.246,94.557 150.161,95.421 151.346,96.03C152.565,96.64 154.005,96.945 155.664,96.945C156.782,96.945 157.798,96.776 158.712,96.437C159.627,96.098 160.609,95.523 161.659,94.71L165.469,100.095C164.419,100.975 163.301,101.72 162.116,102.33C160.931,102.905 159.711,103.329 158.458,103.6C157.239,103.905 156.003,104.057 154.75,104.057ZM175.686,103.549L175.686,76.574L183.458,76.574L183.814,85.362L182.29,83.635C182.73,82.213 183.407,80.926 184.322,79.775C185.236,78.623 186.319,77.708 187.572,77.031C188.859,76.354 190.197,76.015 191.586,76.015C192.196,76.015 192.755,76.066 193.263,76.168C193.804,76.235 194.278,76.354 194.685,76.523L192.501,85.515C192.128,85.312 191.62,85.142 190.977,85.007C190.367,84.838 189.724,84.753 189.047,84.753C188.302,84.753 187.607,84.888 186.963,85.159C186.354,85.396 185.812,85.752 185.338,86.226C184.898,86.7 184.542,87.259 184.271,87.902C184.034,88.546 183.915,89.274 183.915,90.087L183.915,103.549L175.686,103.549Z" style="fill:url(#_Linear1);fill-rule:nonzero;"/>
    </g>
    <g transform="matrix(3.286997,-1.865529,1.865529,3.286997,-107.663971,-233.131329)">
        <path d="M8.65,119.493C5.67,119.493 3.062,118.9 0.827,117.715C-1.374,116.53 -3.085,114.904 -4.304,112.838C-5.489,110.738 -6.082,108.35 -6.082,105.675C-6.082,103.575 -5.743,101.662 -5.066,99.935C-4.389,98.174 -3.44,96.667 -2.221,95.414C-0.968,94.161 0.488,93.195 2.147,92.518C3.84,91.807 5.686,91.451 7.685,91.451C9.581,91.451 11.308,91.79 12.866,92.467C14.424,93.144 15.779,94.093 16.93,95.312C18.081,96.531 18.962,97.971 19.572,99.63C20.181,101.29 20.469,103.102 20.435,105.066L20.385,107.301L-1.053,107.301L-2.273,102.678L13.73,102.678L12.866,103.593L12.866,102.577C12.799,101.73 12.528,101.002 12.053,100.392C11.613,99.749 11.02,99.241 10.275,98.868C9.564,98.495 8.752,98.309 7.837,98.309C6.482,98.309 5.331,98.58 4.383,99.122C3.468,99.63 2.774,100.375 2.3,101.357C1.826,102.34 1.589,103.559 1.589,105.015C1.589,106.471 1.894,107.758 2.503,108.875C3.146,109.993 4.061,110.857 5.246,111.467C6.465,112.076 7.905,112.381 9.564,112.381C10.682,112.381 11.698,112.212 12.612,111.873C13.527,111.534 14.509,110.959 15.559,110.146L19.369,115.531C18.319,116.411 17.201,117.156 16.016,117.766C14.831,118.341 13.611,118.765 12.358,119.036C11.139,119.341 9.903,119.493 8.65,119.493Z" style="fill:none;fill-rule:nonzero;stroke:white;stroke-width:2.1px;stroke-linecap:round;stroke-miterlimit:4;"/>
        <path d="M8.65,119.493C5.67,119.493 3.062,118.9 0.827,117.715C-1.374,116.53 -3.085,114.904 -4.304,112.838C-5.489,110.738 -6.082,108.35 -6.082,105.675C-6.082,103.575 -5.743,101.662 -5.066,99.935C-4.389,98.174 -3.44,96.667 -2.221,95.414C-0.968,94.161 0.488,93.195 2.147,92.518C3.84,91.807 5.686,91.451 7.685,91.451C9.581,91.451 11.308,91.79 12.866,92.467C14.424,93.144 15.779,94.093 16.93,95.312C18.081,96.531 18.962,97.971 19.572,99.63C20.181,101.29 20.469,103.102 20.435,105.066L20.385,107.301L-1.053,107.301L-2.273,102.678L13.73,102.678L12.866,103.593L12.866,102.577C12.799,101.73 12.528,101.002 12.053,100.392C11.613,99.749 11.02,99.241 10.275,98.868C9.564,98.495 8.752,98.309 7.837,98.309C6.482,98.309 5.331,98.58 4.383,99.122C3.468,99.63 2.774,100.375 2.3,101.357C1.826,102.34 1.589,103.559 1.589,105.015C1.589,106.471 1.894,107.758 2.503,108.875C3.146,109.993 4.061,110.857 5.246,111.467C6.465,112.076 7.905,112.381 9.564,112.381C10.682,112.381 11.698,112.212 12.612,111.873C13.527,111.534 14.509,110.959 15.559,110.146L19.369,115.531C18.319,116.411 17.201,117.156 16.016,117.766C14.831,118.341 13.611,118.765 12.358,119.036C11.139,119.341 9.903,119.493 8.65,119.493Z" style="fill:url(#_Linear2);fill-rule:nonzero;"/>
    </g>
    <defs>
        <linearGradient id="_Linear1" x1="0" y1="0" x2="1" y2="0" gradientUnits="userSpaceOnUse" gradientTransform="matrix(0,-36.802,36.802,0,147.899,104.421)"><stop offset="0" style="stop-color:rgb(138,138,138);stop-opacity:1"/><stop offset="1" style="stop-color:white;stop-opacity:1"/></linearGradient>
        <linearGradient id="_Linear2" x1="0" y1="0" x2="1" y2="0" gradientUnits="userSpaceOnUse" gradientTransform="matrix(0,27.543,-27.543,0,6.299,91.868)"><stop offset="0" style="stop-color:rgb(138,138,138);stop-opacity:1"/><stop offset="1" style="stop-color:black;stop-opacity:1"/></linearGradient>
    </defs>
</svg>
